!!!OTL-incipit: WARUM BIST DU DENN SO TRAURIG
!!!ARE: Europa, Mitteleuropa, Deutschland
!!!SCT: Z0284
!!!TXL: @@DE
!!!YEM: Copyright 1995, estate of Helmut Schaffrath.
**kern	**text
*ICvox	*
*M4/4	*
*met(c|)	*
*k[f#c#]	*
*D:	*
=1	=1
!LO:TX:a:t=Deutſch.	!
{8aL	War-
8bJ	.
8aL	-um
8gJ	.
4f#	biſt
4f#	du
=2	=2
8aL	denn
8gJ	.
8f#L	ſo
8gJ	.
4a	traurig?
8ddL	.
8bJ}	.
=3	=3
{8aL	ich
8bJ	.
8aL	bin
8gJ	.
4f#	al-
4f#	-ler
=4	=4
8aL	Freu-
8gJ	.
8f#L	-den
8gJ	.
2a}	voll;
=5	=5
{4.f#	meinſt,
8a	ich
8aL	woll-
8gJ	.
8bL	-te
8gJ	.
=6	=6
4.e	von
8g	dir
8f#L	laſ-
8aJ	.
8ddL	-ſen?
8aJ}	.
=7	=7
{4f#	ach
8a	du
8a	ge-
8bL	-fällſt
8aJ	.
8gL	mir
8f#J	.
=8	=8
8eL	viel
8dJ	.
8eL	ʒu
8f#J	.
2d}	wohl!
==	==
!!!AGN: Lyrisches Lied, Romanze, Abschieds - Lied
!!!ONB: ESAC (Essen Associative Code) Database: ZUCCAL
!!!AMT: simple quadruple
!!!AIN: vox
!!!EED: Helmut Schaffrath
!!!EEV: 1.0
!!!GTL: IV. Lyrische Lieder.
!!!URL-scan: https://www.digitale-sammlungen.de/de/view/bsb11160571?page=513
!!!ENC: Anna Maria Matuszewska
!!!EEV: 2025/01/30
*-	*-
